X:1
%
T:Fyvie Castle
M:C
L:1/8
R:Pastoral Weird and Eerie
C:J. Scott Skinner
Q:"with delicacy"
N:"To th ecomposer's pupils on the district."
B:Skinner - The Logie Collection (1888, p. 63)
Z:AK/Fiddler's Companion
K:Cmin
G,|(CD/E/ FE/F/) (G<cc>d)|([Ee]d/c/ [A,A]G/^F/) {^F}G2- [=B,G]>G,|(CD/E/ FE/F/) (GB{B}cB)|
.[DB].[G,E] .[DB].[A,D] {D}E2- [G,E]:|G|(ga/g/) (d/e/=B/c/) (^F/G/D/E/) (=B/C/G,)|(A,2 {B,A,G,A,}B,).A, (G,2 G,>)G|
(ga/g/) (d/e/=B/c/) (^F/G/D/E/) (=B,/C/G,/B,/)|(C/=B,/C/B,/) (C/D/E/F/) ([=B,2G2]G) z|(ga/g/) (d/e/=B/c/) (^F/G/D/E/) (=B,/C/G,)|
(A,2 {B,A,G,A,}B,).A, (G,2 G,>)G,|(C/=B,/C/D/ E/D/E/F/) (G/=B/c/d/ e/a/g/f/)|[B/g/].[=A/f/] .[G/e/].[E/c/] .[DB].[A,D] {D}E2-[G,E]||

